X:1
T:Tolle trabem
T:Daniel Friderici
T:Source : Bicinia sacra---Rostock---J.Richelius---1642. Editor : André Vierendeels (11/07/17).
T:Notes : Original clefs : C1, C1 m 18 in S 1 : "F" not dotted in original print m 17 and 18 in S 2 : slightly adapted by the editor
T:Tolle trabem
T:©
T:©
T:©
C:Daniel Friderici
Z:©
%%score [ 1 2 ]
L:1/8
Q:1/4=120
M:2/2
K:F
V:1 treble nm="Soprano 1" snm="S 1"
V:2 treble nm="Soprano 2" snm="S 2"
V:1
 c8 | A4 c4- | c4 A4 | FGAB c4 | F2 f4 e2 | f4 c4 | z2 f4 e2 | f4 c4 | d6 e2 | f6 e2 | d6 c2 | B8 | %12
w: Tol-|le, tol-|* le,|tol- * * * *|le, tol- le,|tol- le,|tol- le|tol- le|tra- *||||
 A2 F2 AGAB | c4 z2 F2 | AGAB c4 | z BcB z cdc | z efe z ABA | z e f6 | e2 e2 d4 | d2 c2 =B4 | %20
w: bem quis- quis, _ _ _|_ quis-|quis, _ _ _ _|fe- stu- cam, fe- stu- cam,|fe- stu- cam fe- stu- cam|fe- stu-|cam in- qui-|ris a- mi-|
 c8 :: c4 A2 c2 | B2 A2 G3 G | A2 c4 A2 | GF F3 E/D/ E2 | F2 c4 A2 | G4 A2 G2- | GF F3 E/D/ E2 | %28
w: ci.|Si vis er-|ra- tum car- pe-|re, car- pe|tu- * * * * *|um, car- pe,|car- pe tu-||
 F2 C3 DEF | G4 C2 c2- | c2 A2 G3 A | GF F3 E/D/ E2 | F8 |] %33
w: um, car- * * *|* pe, car-|* pe tu- *||um.|
V:2
 z8 | c8 | A4 c4- | c4 A4 | z2 FG AB c2 | F2 f4 e2 | f4 c4 | z2 f4 e2 | f4 c4 | d6 e2 | f6 e2 | %11
w: |Tol-|le, tol-|* le,|tol- * * * *|le, tol- le,|tol- le,|tol- le,|tol- le|tra- *||
 d8 | c4 z2 F2 | AGAB c4 | z2 F2 AGAB | c2 z A BA z c | dc z e fe z2 | A=Bcc d4 | c2 c2 =B4- | %19
w: |bem, quis-|quis, _ _ _ _|quis- quis, _ _ _|_ fe- stu- cam, fe-|stu- cam, fe- stu- cam|fe- stu- cam in- qui|ris a- mi-|
 B2 c2 d4 | c8 :: A4 c2 A2 | d2 c2 B3 B | A4 z2 c2- | c2 A2 G4 | A2 G3 F F2- | FE/D/ E2 F2 C2- | %27
w: |ci:|Si vis er-|ra- tum car- pe-|re, car-|* pe, car-|pe tu- * *|* * * * um, car-|
 CDEF G4 | A2 G3 F F2- | FE/D/EF G2 C2 | z2 c4 A2 | c2 A2 G4 | F8 |] %33
w: |pe tu- * *|* * * * * * um,|car- pe|tu- * *|um.|

